X: 14
T:Ceilidh House Polka (2)
M:2/4
L:1/8
S:Willie Coyle, Kirkubbin, Down (Accordian)
R:Polka
D:Session tape - Bangor, Down 198?
Z:Bernie Stocks
K:D
EFGA | BedB | ABAF | EFD2 | EFGA | BedB | AFdF | FEE2 :|\
efed | BcdB | ABAF | EFD2 | efed | BcdB |  AFdF | FEE2 |\
efed | BcdB | ABAF | EFD2 | EFGA | BedB | AFdF | FEE2 ||
<end>
<start>
